packages/foundations/assets/icons/functional/images/transportation/car_32.svg

<svg width="32" height="32" viewBox="0 0 32 32" fill="none" xmlns="http://www.w3.org/2000/svg">
<g clip-path="url(#clip0_187_877)">
<path fill-rule="evenodd" clip-rule="evenodd" d="M16.0001 5C18.0892 5.00026 20.1784 5.08466 22.2675 5.25321C23.5362 5.35376 24.6642 6.15186 25.0451 7.33331L26.5321 13.0341H29.033C29.5455 13.0341 29.94 13.3902 29.9937 13.8838L30 14.9661C30 15.4787 29.6421 15.9309 29.149 15.9929L27.995 15.9999C27.995 16.5897 27.9551 17.3587 27.8754 18.3067C27.7956 19.2548 27.6987 20.1773 27.5845 21.0744C27.5207 21.7333 27.3063 22.2947 26.9629 22.7341C26.9726 22.766 26.985 22.8546 27.0001 23.0001V25.0386C27.0001 25.5358 27.0001 26.9469 24.9042 26.998L23.282 27C21.157 27 21.0239 25.6192 21.0042 25.2177L21.0011 24.359C20.1888 24.4247 18.5063 24.4919 16.0042 24.4992C13.5021 24.5065 11.1186 24.3961 10.9995 24.3882L11.0001 25.0386C11.0001 25.5358 10.9995 26.998 8.90424 26.998L7.282 27C5.02385 27 5.02385 25.6192 5.00421 25.2177L5.00006 23.0001C5.00006 22.9475 5.01566 22.8491 5.04684 22.7048C4.74446 22.3256 4.53849 21.8605 4.45009 21.3197C4.3491 20.3535 4.24923 19.4272 4.1505 18.5408C4.00241 17.2112 3.993 16.1573 4.00241 15.9992L2.96706 16.0001C2.41506 16.0001 2.00006 15.5181 2.00006 14.9661V13.9661C2.00006 13.4131 2.41506 13.0001 2.96706 13.0001H5.47606L6.90119 7.52248C7.2233 6.23401 8.3354 5.40361 9.74989 5.25199C11.8275 5.084 13.9109 5 16.0001 5ZM6.99997 23.8135L7.00006 25.0001H9.00006L8.99926 24.1918C8.58406 24.1537 7.91763 24.0276 6.99997 23.8135ZM24.9988 23.7892C24.2959 23.9286 23.6405 24.0423 23.0003 24.1346L23.0001 25.0001H25.0001L24.9988 23.7892ZM16.0001 14.8017C13.1953 14.8013 10.3906 14.8674 7.58593 15.0001C6.59428 15.0391 6.2494 15.201 6.11119 15.555C6.03423 15.7521 5.99985 16.1501 6.00806 16.7491L8.1241 17.0078C8.67212 17.0763 9.06084 17.5761 8.99234 18.1241C8.92873 18.633 8.49324 19.0045 7.99258 19.0002L6.18806 18.7811L6.40927 20.8818C6.45442 21.3486 6.62503 21.6054 7.16394 21.7875C8.50023 22.1637 11.5514 22.5035 15.9996 22.4992C20.4478 22.4949 22.4442 22.2712 24.8927 21.7704C25.297 21.6877 25.5036 21.4807 25.5777 21.0084L25.8151 18.7811L24.1241 18.9924C23.5761 19.0609 23.0763 18.6721 23.0078 18.1241C22.9442 17.6152 23.2748 17.148 23.7611 17.0289L26.0016 16.7491C26.0023 16.3664 25.9644 15.8134 25.8849 15.5951C25.7494 15.2231 25.4374 15.0508 24.6037 15.0027C21.6727 14.8692 18.8048 14.8021 16.0001 14.8017ZM19.7501 17.5001C20.1982 17.5001 20.5861 17.7971 20.7095 18.218L20.9865 19.8357C21.0772 20.3805 20.7092 20.8957 20.1645 20.9865C19.6586 21.0708 19.1782 20.7595 19.0395 20.2784L18.9021 19.5001H13.0971L12.9865 20.1645C12.892 20.7311 12.3415 21.0708 11.8357 20.9865C11.3298 20.9022 10.9763 20.4519 11.0011 19.9518L11.2637 18.3357C11.3373 17.8937 11.694 17.5599 12.1295 17.5073L19.7501 17.5001ZM16.0001 7.00089C13.9731 7.00027 11.9461 7.08141 9.91893 7.24431C9.38453 7.30199 9.0162 7.54599 8.87472 7.90544L7.54206 13.0001C10.3612 12.8679 13.1804 12.8018 15.9996 12.8018C18.8187 12.8018 21.6379 12.8679 24.4571 13.0001L23.1587 8.00755C23.0582 7.60573 22.631 7.28829 22.128 7.24825C20.0697 7.08403 18.027 7.00158 16.0001 7.00089Z" fill="#1A1C1F"/>
</g>
<defs>
<clipPath id="clip0_187_877">
<rect width="32" height="32" fill="white"/>
</clipPath>
</defs>
</svg>

<svg xmlns="http://www.w3.org/2000/svg" width="32" height="32" fill="none"><g clip-path="url(#a)"><path fill="#1A1C1F" fill-rule="evenodd" d="M16 5q3.134 0 6.267.253c1.27.1 2.397.899 2.778 2.08l1.487 5.701h2.501a.94.94 0 0 1 .96.85L30 14.966c0 .513-.358.965-.851 1.027L27.995 16q0 .885-.12 2.307t-.29 2.767c-.064.66-.279 1.22-.622 1.66q.015.048.037.266v2.039c0 .497 0 1.908-2.096 1.959L23.282 27c-2.125 0-2.258-1.38-2.278-1.782l-.003-.859c-.812.066-2.495.133-4.997.14s-4.885-.103-5.005-.11l.001.65c0 .497 0 1.959-2.096 1.959L7.282 27c-2.258 0-2.258-1.38-2.278-1.782L5 23q0-.078.047-.295a2.96 2.96 0 0 1-.597-1.385q-.15-1.45-.3-2.78c-.148-1.329-.157-2.383-.148-2.54H2.967C2.415 16 2 15.518 2 14.966v-1c0-.553.415-.966.967-.966h2.51L6.9 7.522c.322-1.288 1.434-2.118 2.849-2.27A78 78 0 0 1 16 5M7 23.814V25h2v-.808q-.623-.057-2-.378m17.999-.025c-.703.14-1.358.253-1.999.346V25h2zM16 14.802q-4.208 0-8.414.198c-.992.04-1.337.201-1.475.555q-.115.296-.103 1.194l2.116.259A1 1 0 0 1 7.993 19l-1.805-.219.221 2.1c.045.468.216.724.755.907 1.336.376 4.387.715 8.836.711 4.448-.004 6.444-.228 8.893-.729.404-.082.61-.29.685-.762l.237-2.227-1.69.211a1 1 0 0 1-.364-1.963l2.24-.28c.001-.383-.037-.936-.116-1.154-.136-.372-.448-.544-1.281-.592q-4.397-.2-8.604-.201m3.75 2.698a1 1 0 0 1 .96.718l.276 1.618a1 1 0 0 1-1.947.442l-.137-.778h-5.805l-.11.665a1.01 1.01 0 0 1-1.151.822A1 1 0 0 1 11 19.952l.263-1.616a1 1 0 0 1 .866-.829zM16 7a76 76 0 0 0-6.081.244c-.534.058-.903.302-1.044.661L7.542 13a181 181 0 0 1 16.915 0L23.16 8.008c-.1-.402-.528-.72-1.031-.76A77 77 0 0 0 16 7.001" clip-rule="evenodd"/></g><defs><clipPath id="a"><path fill="#fff" d="M0 0h32v32H0z"/></clipPath></defs></svg>
